src/assets/social-media/youtube.svg

<svg fill="none" height="24" viewBox="0 0 25 24" width="25" xmlns="http://www.w3.org/2000/svg" xmlns:xlink="http://www.w3.org/1999/xlink"><radialGradient id="a" cx="0" cy="0" gradientTransform="matrix(0 16.767 -23.9911 0 12.3336 3.61597)" gradientUnits="userSpaceOnUse" r="1"><stop offset="0" stop-color="#fff"/><stop offset="1" stop-color="#fff" stop-opacity=".3"/></radialGradient><clipPath id="b"><path d="m.333374 0h24v24h-24z"/></clipPath><g clip-path="url(#b)"><path d="m23.8283 6.20498c-.1391-.49824-.4043-.95218-.7701-1.31795-.3657-.36577-.8197-.631-1.3179-.77005-1.87-.501-9.396-.501-9.396-.501s-7.50703-.01-9.39603.501c-.49823.13905-.95218.40428-1.31795.77005s-.630995.81971-.770046 1.31795c-.354479 1.91451-.529239 3.85792-.522 5.80502-.00587 1.9397.168884 3.8757.522 5.783.139051.4982.404276.9522.770046 1.3179.36577.3658.81972.631 1.31795.7701 1.868.502 9.39603.502 9.39603.502s7.506 0 9.396-.502c.4982-.1391.9522-.4043 1.3179-.7701.3658-.3657.631-.8197.7701-1.3179.3457-1.908.5131-3.844.5-5.783.0145-1.9464-.1529-3.88981-.5-5.80502zm-13.88603 9.39602v-7.19302l6.26403 3.60202z" fill="url(#a)"/></g></svg>

<svg width="25" height="24" viewBox="0 0 25 24" fill="none" xmlns="http://www.w3.org/2000/svg">
<g clip-path="url(#clip0_7462_3962)">
<path d="M23.8283 6.20498C23.6892 5.70674 23.424 5.2528 23.0582 4.88703C22.6925 4.52126 22.2385 4.25603 21.7403 4.11698C19.8703 3.61598 12.3443 3.61598 12.3443 3.61598C12.3443 3.61598 4.83727 3.60598 2.94827 4.11698C2.45004 4.25603 1.99609 4.52126 1.63032 4.88703C1.26455 5.2528 0.999325 5.70674 0.860274 6.20498C0.505795 8.11949 0.331035 10.0629 0.338274 12.01C0.332404 13.9497 0.507158 15.8857 0.860274 17.793C0.999325 18.2912 1.26455 18.7452 1.63032 19.1109C1.99609 19.4767 2.45004 19.7419 2.94827 19.881C4.81627 20.383 12.3443 20.383 12.3443 20.383C12.3443 20.383 19.8503 20.383 21.7403 19.881C22.2385 19.7419 22.6925 19.4767 23.0582 19.1109C23.424 18.7452 23.6892 18.2912 23.8283 17.793C24.174 15.885 24.3414 13.949 24.3283 12.01C24.3428 10.0636 24.1754 8.12019 23.8283 6.20498ZM9.94227 15.601V8.40798L16.2063 12.01L9.94227 15.601Z" fill="url(#paint0_radial_7462_3962)"/>
</g>
<defs>
<radialGradient id="paint0_radial_7462_3962" cx="0" cy="0" r="1" gradientUnits="userSpaceOnUse" gradientTransform="translate(12.3336 3.61597) rotate(90) scale(16.767 23.9911)">
<stop stop-color="white"/>
<stop offset="1" stop-color="white" stop-opacity="0.3"/>
</radialGradient>
<clipPath id="clip0_7462_3962">
<rect width="24" height="24" fill="white" transform="translate(0.333374)"/>
</clipPath>
</defs>
</svg>
